assets/ai/ai-hypothesis-square.svg

<svg xmlns="http://www.w3.org/2000/svg" width="100%" height="100%" viewBox="-75.52 -43.52 599.04 599.04"><path d="M 48 32 C 21.5 32 0 53.5 0 80 L 0 432 C 0 458.5 21.5 480 48 480 L 400 480 C 426.5 480 448 458.5 448 432 L 448 80 C 448 53.5 426.5 32 400 32 L 48 32 z M 98.283203 96 L 349.7168 96 C 363.6005 96 374.85742 107.27464 374.85742 121.14062 L 374.85742 372.57422 C 374.85742 386.45791 363.58183 397.7168 349.7168 397.7168 L 262.45508 397.7168 L 224.00195 448 L 185.54492 397.7168 L 98.283203 397.7168 C 84.39856 397.7168 73.142578 386.43925 73.142578 372.57422 L 73.142578 121.14062 C 73.142578 107.25597 84.417211 96 98.283203 96 z M 123.42773 146.28516 L 123.42773 347.43164 L 161.24414 347.43164 L 161.24414 290.89648 C 161.24414 263.35699 173.71266 250.00127 186.28516 246.85938 C 198.85765 243.71256 211.66602 251.57101 211.66602 272.04688 L 211.66602 347.43164 L 249.48438 347.43164 L 249.48438 260.79883 C 249.48437 221.71614 224.00241 209.18164 198.85742 209.18164 C 173.8509 209.18164 161.24414 234.31055 161.24414 234.31055 L 161.24414 146.28516 L 123.42773 146.28516 z M 312 297.14648 C 298.11536 297.14648 286.85938 308.36363 286.85938 322.20508 C 286.85938 336.0475 298.11536 347.26562 312 347.26562 C 325.88859 347.26563 337.14453 336.0475 337.14453 322.20508 C 337.14453 308.36363 325.88859 297.14648 312 297.14648 z"/></svg>

<svg xmlns="http://www.w3.org/2000/svg" width="100%" height="100%" viewBox="-75.52 -43.52 599.04 599.04"><path d="M48 32C21.5 32 0 53.5 0 80v352c0 26.5 21.5 48 48 48h352c26.5 0 48-21.5 48-48V80c0-26.5-21.5-48-48-48H48zm50.283 64h251.434c13.884 0 25.14 11.275 25.14 25.14v251.434c0 13.884-11.275 25.143-25.14 25.143h-87.262L224.002 448l-38.457-50.283H98.283c-13.884 0-25.14-11.278-25.14-25.143V121.141C73.143 107.256 84.417 96 98.283 96zm25.145 50.285v201.147h37.816v-56.536c0-27.539 12.469-40.895 25.041-44.037 12.573-3.146 25.381 4.712 25.381 25.188v75.385h37.818v-86.633c0-39.083-25.482-51.617-50.627-51.617-25.006 0-37.613 25.129-37.613 25.129v-88.026h-37.816zM312 297.146c-13.885 0-25.14 11.218-25.14 25.06 0 13.841 11.255 25.06 25.14 25.06 13.889 0 25.145-11.219 25.145-25.06 0-13.842-11.256-25.06-25.145-25.06z"/></svg>
